X:1
T:Title
%%score { ( 1 3 ) | ( 2 4 ) }
L:1/8
M:4/4
K:Ab
V:1 treble nm="Grand Piano"
V:3 treble 
V:2 bass 
V:4 bass 
V:1
 z4 z2[Q:1/4=92] [CE]>[CE] | [CA]>[CA] [CA]>[CA] [CA][CA] [CA]>[DB] | %2
[M:3/4] [Ec]>[Ec] [Ec]>[DB] [CA]2 |[M:1/4] B>c |[M:4/4] d>d d>d d>d e>d | %5
[M:3/4] [Ec]>[DB] [CA]>[DB] [Ec]2 |[M:1/4] c>d |[M:4/4] e>e e>c A2 [EA]>[EG] | %8
[M:3/4] [DF]>[EG] [FA]>[DF] [CE]2 |[M:1/4] [CE]>[CE] | %10
[M:35/32] [CA]>[CA][CA]>[DB][Ec]/ e2- e/(3:2:4e3/2-e/4e3/4-e/8 | %11
 z3/2 e3/4 z z/4 (3:2:8d3/4-d/8c3/8-c/16 z3/8 z/16 e3/4-e/8- e2 z3/4 [FB]3/4 | %12
[M:7/8] c>cc>B [CA]3 |] %13
V:2
 z4 z2 [A,,A,]>[A,,A,] | [A,,E,]>[A,,E,] [A,,E,]>[A,,E,] [A,,E,][A,,E,] [A,,E,]>[A,,E,] | %2
[M:3/4] [A,,A,]>[A,,A,] [A,,A,]>[A,,E,] [A,,E,]2 |[M:1/4] [E,G,E]>[E,A,E] | %4
[M:4/4] [E,B,E]>[E,B,E] [E,B,E]>[E,B,E] [E,B,E]>[E,B,E] [E,CE]>[E,B,E] | %5
[M:3/4] [A,,A,]>[A,,E,] [A,,E,]>[A,,E,] [A,,A,]2 |[M:1/4] [A,E]>[A,B,E] | %7
[M:4/4] [A,CE]>[A,CE] [A,CE]>[A,E] [A,CE]2 [C,A,]>[C,A,] | %8
[M:3/4] [D,A,]>[D,A,] [D,A,]>[D,A,] [A,,A,]2 |[M:1/4] [A,,A,]>[A,,A,] | %10
[M:35/32] [A,,A,]>[A,,A,][A,,A,]>[A,,E,][A,,A,]/[K:treble] [A,CE]2- [A,CE]/(3:2:4[A,CE]3/2-[A,CE]/4[A,CE]3/4-[A,CE]/8 | %11
 [A,A]2 [A,CA]3/2-[A,CA]/4 z2[K:bass] z3/4 A,2 z/4 | %12
[M:7/8] [E,A,E]>[E,A,E][E,A,E]>[E,G,D] [A,,A,]3 |] %13
V:3
 x8 | x8 |[M:3/4] x6 |[M:1/4] x2 |[M:4/4] x8 |[M:3/4] x6 |[M:1/4] x2 |[M:4/4] x8 |[M:3/4] x6 | %9
[M:1/4] x2 |[M:35/32] x35/4 | f3/2-f/4 z/4 e3/2-e/4 z2 z3/4 [EA]3/2-[EA]/4 z/ |[M:7/8] x7 |] %13
V:4
 x8 | x8 |[M:3/4] x6 |[M:1/4] x2 |[M:4/4] x8 |[M:3/4] x6 |[M:1/4] x2 |[M:4/4] x8 |[M:3/4] x6 | %9
[M:1/4] x2 |[M:35/32] x9/2[K:treble] x17/4 | %11
 D3/2-[A,-C-DA-]/4[A,CA]/ z z/4 (3:2:8[A,B,A]3/4-[A,B,A]/8[A,A]3/8-[A,A]/16 z3/8 z/16[K:bass] [A,CA]3/4-[A,CA]/8-[A,CA]-[A,C-A-]/<[C,-CA]/C,/->[C,D,-A,-]/[D,A,]/ | %12
[M:7/8] x7 |] %13

